!!!COM:	Bach, Johann Sebastian
!!!OMV:	Jesu, Jesu, du bist mein
!!!OTL:	Jesu, Jesu, du bist mein
**kern	**fb	**kern	**kern	**kern	**kern
*part5	*part5	*part4	*part3	*part2	*part1
*staff5	*	*staff4	*staff3	*staff2	*staff1
*I"Continuo	*	*I"Voice	*I"Voice	*I"Voice	*I"Voice
*I'Cont.	*	*I'V	*I'V	*I'V	*I'V
*clefF4	*	*clefF4	*clefGv2	*clefG2	*clefG2
*Trd0c0	*	*	*	*	*
*k[b-e-]	*	*k[b-e-]	*k[b-e-]	*k[b-e-]	*k[b-e-]
*M4/4	*	*M4/4	*M4/4	*M4/4	*M4/4
=	=	=	=	=	=
4C	.	4C	4c	4e-	4.g
4E-	6	4E-	4c	4g	.
.	.	.	.	.	8cc
4D	nr6	4D	4d	4f	4bn
4C	.	4C	4e-	4g	4cc
=3	=3	=3	=3	=3	=3
4BBn	6	4BBn	4d	4g	4dd
4C	.	4C	4c	4g	8ee-L
.	.	.	.	.	8ddJ
2GG;	n	2GG;	4c	2g;	2dd;
.	.	.	4Bn;	.	.
=4	=4	=4	=4	=4	=4
4C	.	4C	4c	4g	4ee-
8cL	.	8cL	8e-L	4g	4cc
8B-J	.	8B-J	8dJ	.	.
4.A-X	6	4.A-X	4c	8fL	4ff
.	.	.	.	8gJ	.
.	5	.	4c	[4a-X	4ee-
8G	.	8G	.	.	.
=5	=5	=5	=5	=5	=5
4F	6 5 -	4F	4c	8a-L]	4dd
.	.	.	.	8d	.
4G	n	4G	4Bn	8g	8.ddL
.	.	.	.	8fJ	.
.	.	.	.	.	16ee-Jk
2C;	.	2C;	4G	4e-	4cc
.	.	.	4G;	4e-;	4cc;
=6	=6	=6	=6	=6	=6
4c	.	4c	4c	8e-L	4g
.	.	.	.	8fJ	.
4B-	6	4B-	4d	4g	4g
4A-X	.	4A-X	4e-	8cL	4cc
.	.	.	.	8dJ	.
8GL	6	8GL	4B-	4e-	4b-
8FJ	.	8FJ	.	.	.
=7	=7	=7	=7	=7	=7
!!linebreak:original
8E-L	5 -r4 2	8E-L	4B-	4f	4a-X
8DJ	.	8DJ	.	.	.
4E-	.	4E-	4B-	4e-	8gL
.	.	.	.	.	8fJ
2BB-;	.	2BB-;	2B-;	2d;	2f;
=8	=8	=8	=8	=8	=8
8DL	6	8DL	4B-	4.f	4b-
8BB-J	.	8BB-J	.	.	.
4E-	.	4E-	4B-	.	4g
.	.	.	.	8e-	.
4AA-X	5 3	4AA-X	8cL	8e-L	8ccL
.	6 4	.	[8B-J	8fJ	8ddJ
8GGL	6	8GGL	8B-L]	8gL	4ee-
8AA-J	.	8AA-J	8cJ	8fJ	.
=9	=9	=9	=9	=9	=9
8BB-L	6 4	8BB-L	4B-	4e-	4g
8AA-XJ	.	8AA-XJ	.	.	.
4BB-	5 3	4BB-	8.B-L	4d	8fL
.	.	.	.	.	8e-J
.	.	.	16A-XJk	.	.
2EE-;	.	2EE-;	4G	4B-	4e-
.	.	.	4G;	4B-;	4e-;
=10	=10	=10	=10	=10	=10
8E-L	5	8E-L	4B-	4e-	4.g
8D	.	8D	.	.	.
8E-	6	8E-	8cL	4e-	.
8CJ	nr6	8CJ	8e-J	.	8an
8DL	nr6	8DL	4d	4f	4bn
8A-X	.	8A-X	.	.	.
8G	n	8G	4d	4g	4b
8FJ	.	8FJ	.	.	.
=11	=11	=11	=11	=11	=11
8E-L	6	8E-L	4e-	4g	4cc
8CJ	.	8CJ	.	.	.
8FFL	6 -	8FFL	4f	4a-X	4dd
8FJ	.	8FJ	.	.	.
8GL	n	8GL	4d	4g	4bn
8GG	.	8GG	.	.	.
8G	.	8G	4d;	4g;	4b;
8F;J	.	8F;J	.	.	.
=12	=12	=12	=12	=12	=12
!!pagebreak:original
8E-L	6	8E-L	4e-	4g	4cc
8D	.	8D	.	.	.
8C	5 2	8C	4d	4g	4dd
8BBnJ	.	8BBnJ	.	.	.
8CL	.	8CL	8cL	4g	4ee-
8G	.	8G	8d	.	.
8c	.	8c	8e-	4g	4cc
8B-J	.	8B-XJ	8dJ	.	.
=13	=13	=13	=13	=13	=13
4A-X	6	4A-X	4c	4f	4ff
8GL	6 4	8GL	4c	4g	4ee-
8FJ	.	8FJ	.	.	.
4G	5 4	4G	4c	4g	4dd
4GG;	n	4GG;	4Bn;	4g;	4dd;
=14	=14	=14	=14	=14	=14
4E-	6	4E-	4c	4g	4cc
4C	.	4C	4e-	[4g	4g
4F	9 -	4F	4c	8g]	4a-X
.	8	.	.	4f	.
4G	7 n	4G	4Bn	.	4g
.	6	.	.	8e-	.
=15	=15	=15	=15	=15	=15
2A-X	7	2A-X	8cL	8e-L	4.g
.	.	.	8BnJ	8dJ	.
.	6	.	4c	4c	.
.	.	.	.	.	8f
2G;	n	2G;	2B;	2d;	2g;
=16	=16	=16	=16	=16	=16
8E-L	6	8E-L	4c	8gL	4cc
8D	.	8D	.	8fJ	.
8E-	.	8E-	4c	8gL	4g
8CJ	.	8CJ	.	8e-J	.
8FL	-	8FL	4c	4f	8a-XL
8G	.	8G	.	.	8gJ
8A-X	6	8A-X	4A-X	4c	8f
8FJ	.	8FJ	.	.	16e-LL
.	.	.	.	.	16dJJ
=17	=17	=17	=17	=17	=17
!!linebreak:original
4G	6 4	4G	4G	4c	4e-
4GG	5 n	4GG	8.GL	4Bn	8dL
.	.	.	.	.	8cJ
.	.	.	16FJk	.	.
2C;	.	2C;	2En;	2G;	2c;
=||	=||	=||	=||	=||	=||
*-	*-	*-	*-	*-	*-
!!!system-decoration: s1,s2,s3,s4,s5
